X:1
T:Home at Last
T:Home at Last
T:Robert Lowry
T:William Orcutt Cushing, 1877
T:Public Domain Courtesy of the Cyber Hymnal™
T:Public Domain Courtesy of the Cyber Hymnal™
C:Robert Lowry
Z:Public Domain
Z:Courtesy of the Cyber Hymnal™
%%score ( 1 2 ) ( 3 4 )
L:1/8
Q:1/4=105
M:4/4
K:G
V:1 treble 
V:2 treble 
V:3 bass 
V:4 bass 
V:1
 [DG]3 [GB] [Gd]3 [GB] | ([FA][GB]) ([Ac][ce]) ([Bd]>[GB]) [DG]2 | [EG]3 [CE] [EG]3 [CE] | %3
w: 1.~Cheer, O cheer, ye|sons * of * Zi- * on!|Wear- y days will|
w: 2.~Cheer, O cheer, the|morn * is * break- * ing!|Gloom- y night will|
w: 3.~Cheer, O cheer, the|morn * is * break- * ing!|Bright its beams of|
 D2 [DG]2 [FA]4 | G3 [GB] [Gd]3 [GB] | ([FA][GB]) ([Ac][ce]) ([Bd]>[GB]) G2 | %6
w: soon be past;|Joy’s bright ban- ner|wav- * ing * o’er * us|
w: dis- ap- pear;|Christ will come with|sweet * a- * wak- * ing;|
w: prom- ise rise;|Sing, O sing, ye|heirs * of * Zi- * on!|
 [Ge]3 [Ge] [Gd]2 (dB) | [DG]2 [DA]2 [DG]4 |"^Duet" [Ac]3 [GB] ([FA][EG]) ([DF][EG]) | %9
w: Tells that Heav’n is *|won at last.|On that fair, * ce- *|
w: Hap- pier days will *|soon be here;|Long the pil- * grim *|
w: Hear the wel- come *|from the skies:|“Come, ye bless- * èd *|
 ([FA][ce]) ([Bd][Ac]) ([GB]>[Ac]) [Bd]2 | [GB]3 [=FB] [Ec]2 [Ec]2 | [DB]2 [GB]2 [FA]4 | %12
w: les- * tial * morn- * ing,|Comes no cloud of|grief or pain;|
w: path * we’ve * wan- * dered,|Long we’ve hoped ’mid|doubt and fear,|
w: of * my * Fa- * ther,”|Faint no more ’mid|doubts and fears;|
 [Ac]3 [GB] ([FA][EG]) ([DF][EG]) | ([FA][GB]) ([Ac][ce]) ([ce][Bd]) [Bd]2 | %14
w: In your peace- * ful *|tents * a- * bid- * ing,|
w: Hard we’ve pressed * thro’ *|many * a * bat- * tle—|
w: Heav- en’s bright * portal *|opes * be- * fore * you;|
 [A^c]3 [Gc] (dA) ([FA][EG]) | [^CE]2 !fermata![CA]2 (z2 (3[A^c][GB][FA]) || %16
w: Sor- row ne’er * shall *|come a- * * *|
w: Now the day * of *|peace is * * *|
w: Wait for you * im- *|mor- tal * * *|
"^Refrain" [DG]3 [GB] [Gd]3 [GB] | ([FA][GB]) ([Ac][ce]) ([Bd]>[GB]) [DG]2 | %18
w: * gain. * *||
w: * here. Cheer, O|cheer, * ye * sons * of|
w: * years. * *||
 [EG]3 [CE] [EG]3 [CE] | D2 [DG]2 [FA]4 | G3 [GB] [Gd]3 [GB] | %21
w: |||
w: Zi- on! Wear- y|days will soon|be past; Joy’s bright|
w: |||
 ([FA][GB]) ([Ac][ce]) ([Bd]>[GB]) G2 | [Ge]3 [Ge] [Gd]2 (dB) | [DG]2 [DA]2 [DG]4 |] %24
w: |||
w: ban- * ner * wav- * ing|o’er us Tells that *|Heav’n is won|
w: |||
V:2
 x8 | x8 | x8 | D2 x6 | G3 x5 | x6 G2 | x6 G2 | x8 | x8 | x8 | x8 | x8 | x8 | x8 | x4 F2 x2 | %15
 x4 D4 || x8 | x8 | x8 | D2 x6 | G3 x5 | x6 G2 | x6 G2 | x8 |] %24
V:3
 [G,B,]3 [G,D] [G,B,]3 [G,D] | [D,D]2 [D,D]2 [G,D]2 [G,B,]2 | [C,C]3 [C,G,] [C,C]3 [C,G,] | %3
 [B,,G,]2 [G,,B,]2 [D,D]4 | [G,B,]3 [G,D] [G,B,]3 [G,D] | [D,D]2 [D,D]2 [G,D]2 [G,B,]2 | %6
 [C,C]3 [E,C] [G,B,]2 [B,,D]2 | [D,B,]2 [D,C]2 [G,,B,]4 | D,3 D, D,2 D,2 | D,2 D,2 G,2 G,2 | %10
 G,3 G, C,2 E,2 | G,2 G,,2 D,4 | D,3 D, D,2 D,2 | D,2 D,2 G,2 G,2 | E,3 E, D,2 x2 | %15
 A,2 !fermata!A,,2 D,4 || [G,B,]3 [G,D] [G,B,]3 [G,D] | [D,D]2 [D,D]2 [G,D]2 [G,B,]2 | %18
 [C,C]3 [C,G,] [C,C]3 [C,G,] | [B,,G,]2 [G,,B,]2 [D,D]4 | [G,B,]3 [G,D] [G,B,]3 [G,D] | %21
 [D,D]2 [D,D]2 [G,D]2 [G,B,]2 | [C,C]3 [E,C] [G,B,]2 [B,,D]2 | [D,B,]2 [D,C]2 [G,,B,]4 |] %24
V:4
 x8 | x8 | x8 | x8 | x8 | x8 | x8 | x8 | D,3 D, D,2 D,2 | D,2 D,2 G,2 G,2 | G,3 G, C,2 E,2 | %11
 G,2 G,,2 D,4 | D,3 D, D,2 D,2 | D,2 D,2 G,2 G,2 | E,3 E, D,2 (D,G,) | A,2 A,,2 D,4 || x8 | x8 | %18
 x8 | x8 | x8 | x8 | x8 | x8 |] %24

